public/avatar/hat/85.svg

<svg xmlns:xlink="http://www.w3.org/1999/xlink" height="92.9" width="100.7" xmlns="http://www.w3.org/2000/svg"><use height="32.25" transform="translate(16.55 45)" width="43.9" xlink:href="#a"/><defs><g id="a"><path d="M8.95 5.35Q10.9 5.3 10 6.85l-.7.55-2.2.45-.4.1Q2.55 8.65.3 6l-.2-.2-.05-.05-1.5 1.15q-2.5 1.25-5.25.75-.6-.1-.5-.7l.05-.1-.45-.2q-1.35-.55-.25-1.5.45-.4 1.05-.3l.3.05q.7-.8 1.85-.45l1.75.05 1.7-2.55.15-.4Q-.75.8 0 .75q1.45.7.8 2.25l.5.8v.05l.05.05.4.5L5 4.5q1.7-1.45 2 .55l-.1.55 1-.15 1.05-.1" fill-opacity=".251" fill-rule="evenodd" transform="translate(22.1 4.75)"/><path d="M19.65 19.05 18.6 15l-1.25-3" fill="none" stroke="#d98200" stroke-linecap="round" stroke-linejoin="round" transform="translate(22.1 4.75)"/><path d="m12.5 9 .95-1.65 1.35.55 2.85 1.85q1.35 1.2 2.6 4 1.15 2.75 1 3.85-.3 1.4-1.95 2.35.75 1-.25 2.25-.6.75-1.45.9l-.25-2.3-.95-3.45-2.5-6.9q-.4-1.1-1.35-1.55l-.05.1m4.2 14.05-.5-.15-.6-2.2.45 1.45.2.75.45.15" fill="#ffc300" fill-rule="evenodd" transform="translate(22.1 4.75)"/><path d="m12.5 9 .05-.1q.95.45 1.35 1.55l2.5 6.9.95 3.45.25 2.3h-.5l-.4-.05-.45-.15-.2-.75-.45-1.45-3.2-11.55.1-.15" fill="#d4a200" fill-rule="evenodd" transform="translate(22.1 4.75)"/><path d="M3.2-3.3q.55.8.75 1.8l-.5.6q-.8.7-.6 1.6l.3.25L5.7.25q.75-.3.85-1.05l.05-.35-.25-.2.85.65 2.45.2q-.45.45-.5 1.25l.15.8q.85 1.6-.8 2.2-.9.35-1.3 1.2-.1.25.15.45.7.45 1.65.3 1.2-.2 2.1-1 1.45-1.25.45-3l.7-.05L14.2 5q.75 1.5.9 4.85l.1.5.25.3q.7.25.85.4 1 .85 1.5 4.2.5 3.5-.1 4.7l-.2.45q-1-2.6-3.5-3.7-.25 0-.4.2l-2.05-3.3q-.8-1.4-3.85-3.4-1.1-.75-1.15-1.4-.1-.9-.4-1.3.2-2.5-.9-3.05l-3.35-.1Q.6 3.15-.2 2.9l-.45-.05q-.8 1.45-1.8 1.75l-3.3.2-2.4 3.65q-2.2 1.95-3.45 4-1.35 2.35-2.15 5.65l-1.35-1.05q.15-2.7 1.5-5.05 1.25-2.1 2.2-4.35l1.3-1.9.4-.75Q-8.1 3.05-7.65.65q.15-.9-.45-1.45l1.25-.1.05.55q.15 1 1.1 1.6 1.35.8 2.85.4.9-.25.9-1.1.05-1.5-1.15-2.45l-.2-.4q.05-.7-.2-1.15l-1.3.4q1.45-.65 4.15-.7h.45l3.4.45" fill="#ffc300" fill-rule="evenodd" transform="translate(22.1 4.75)"/><path d="m-4.8-3.05 1.3-.4q.25.45.2 1.15l.2.4q1.2.95 1.15 2.45 0 .85-.9 1.1-1.5.4-2.85-.4-.95-.6-1.1-1.6l-.05-.55h.05q.25 0 .9-1.4l.15-.15.95-.6M-8.1-.8q.6.55.45 1.45Q-8.1 3.05-9.7 5l-.4.75-1.3 1.9q-.95 2.25-2.2 4.35-1.35 2.35-1.5 5.05-1.7-1.55-1.35-2.8l1.2-5.9 1.3-5q.95-1.3 1.2-2.05.35-.9.8-1.1l.95-.4 2.9-.6m21.7 17.7q.15-.2.4-.2 2.5 1.1 3.5 3.7-.6 1.35-1.55 5v-.25l-.2-2.1-.1-.65v-.05q-.35-2.4-.85-3.7l-.95-1.35-.1-.2-.15-.2" fill="#d4a200" fill-rule="evenodd" transform="translate(22.1 4.75)"/><path d="m6.35-1.35.25.2-.05.35q-.1.75-.85 1.05l-2.55.7-.3-.25q-.2-.9.6-1.6l.5-.6q-.2-1-.75-1.8l2 1.05.2.15.7.55.25.2m5.9 3-.7.05q1 1.75-.45 3-.9.8-2.1 1-.95.15-1.65-.3-.25-.2-.15-.45.4-.85 1.3-1.2 1.65-.6.8-2.2l-.15-.8q.05-.8.5-1.25.9.25 1.55.85l.5.55.6.75h-.05" fill="#ffeabb" fill-rule="evenodd" transform="translate(22.1 4.75)"/><path d="M12.95 27.05q.35-6.35.35-12.7v-.95l-.1-1.7.25-.25 1.65-2.1q1.1 2.85 1.25 10.25l-.2 5.3q-.2 2.2-2.5 2.2l-.7-.05" fill="#ffc300" fill-rule="evenodd" transform="translate(22.1 4.75)"/><path d="m13.2 11.7.1 1.7v.95q0 6.35-.35 12.7-1.15-.2-1.45-.85l-.05-.05-.05-.25v-.3q-.8.55-.5-4.15l1.15-7.15q0-.95.7-2l.45-.6" fill="#d4a200" fill-rule="evenodd" transform="translate(22.1 4.75)"/><path d="M-13.5 7.35q-.1.35-.7.7-3.3 1.95-5.05 5.35l-1.05 2.55-.35 2.9-.5-.6-.35-.85-.05-.15q-.15-1.1 1.05-3.8l.85-1.75q.8-1.5 1.75-2.3l.5-.45Q-15.7 7.6-13.7 7l.2.3v.05m-6.35 12.15.55-3.5.25-.95q.25-.8.85-1.35l.2-.1q1 .5.4 1.65-1.05 2.1-.95 4.5.05 1.35-.35 2.6l-.45-.45q-.65-.8-.5-1.6l.3-.65-.3-.15" fill="#ffc300" fill-rule="evenodd" transform="translate(22.1 4.75)"/><path d="m-13.5 7.35.8 1.5-3.8 13.75q-1.45.45-2.4-.25.4-1.25.35-2.6-.1-2.4.95-4.5.6-1.15-.4-1.65l-.2.1q-.6.55-.85 1.35l-.25.95-.55 3.5-.8-.65.35-2.9 1.05-2.55q1.75-3.4 5.05-5.35.6-.35.7-.7" fill="#d4a200" fill-rule="evenodd" transform="translate(22.1 4.75)"/><path d="m-14.9 10.7 1 1.2q.7 1.05.7 2l1.2 7.15q.2 4.75-.55 4.15-.05 1.05-1.2 1.35l-.4-.8q-.7-1.1-.8-2.35-.55-6.35.05-12.7" fill="#ffc300" fill-rule="evenodd" transform="translate(22.1 4.75)"/><path d="M-14.9 10.7q-.6 6.35-.05 12.7.1 1.25.8 2.35l.4.8-1.1.15q-1.7.05-2.2-1.2l-.05-.05-.1-.5-.05-.45-.3-5.25q.15-7.6 1.3-10.25l1.35 1.7" fill="#d4a200" fill-rule="evenodd" transform="translate(22.1 4.75)"/><path d="M11.4 9.6q.95 3.65.1 7.2-.85 3.6-.25 8.9.1 1.3 2.2 1.3 2.05 0 2.3-1.65.9-5.95.55-10.6Q16 11.3 15 9.2l-.5-2.55Q13.6 3 12.75 2.1l-2.1-2Q9.35-.85 8.2-.85l-1 .15Q5.75-4.25-.4-4.25q-6.15 0-7.05 3.85Q-9.1-.95-11 .35q-.8.2-2.05 1.45-.85.9-1.7 4.55l-.1.4-.05.3-.15.7q-1.7 2.15-2.05 6.65-.35 4.1.55 10.6.25 1.65 2.3 1.65 2.1 0 2.2-1.3.6-5.2-.2-8.85-.55-2.2-.3-4.95l.4-2.25" fill="none" stroke="#a95c01" stroke-linecap="round" stroke-linejoin="round" transform="translate(22.1 4.75)"/><path d="m16.2 22.9.85.2q.95.1 1.55-.4.9-.85 1.2-1.8.4-.45-.1-1.85 1 .55 1.55-1.45.35-1.55-1.3-4.35L17.3 9.1q-.55-.85-2.1-1.4l-1.4-.35" fill="none" stroke="#a95c01" stroke-linecap="round" stroke-linejoin="round" transform="translate(22.1 4.75)"/><path d="M-6.65 5.95q.5.25-.45 2.15-.95 1.85-1.5 1-.85-1.35-.1-3 1.15-2.5 4.55-4.3l-2.5 4.15" fill="#ffc300" fill-rule="evenodd" transform="translate(22.1 4.75)"/><path d="m-13.45 12.3 2.45-1.1q1.45-.45 3.55-2.65.45-.5 1.7-3.75l3.3-.2q.9-.35 2.2-1.55L1.9 4.7q.85.3 3.55 0l.25 1.4q.15 1.3 1 2.45Q8.4 10.7 9.65 11l1.65.45" fill="none" stroke="#d98200" stroke-linecap="round" stroke-linejoin="round" transform="translate(22.1 4.75)"/><path d="M-16.5 22.6q-1.45.6-2.4-.25l-1.15-1.8.05-1.85q-1 .55-1.55-1.45-.35-1.6 1.3-4.35l2.65-4.1" fill="none" stroke="#a95c01" stroke-linecap="round" stroke-linejoin="round" transform="translate(22.1 4.75)"/><path d="m-20 18.7 1.1-4.05 1.3-3" fill="none" stroke="#ffc300" stroke-linecap="round" stroke-linejoin="round" transform="translate(22.1 4.75)"/><path d="M14.55 11.5q1.25 6.8 0 13.45m5.15-5.9q-1.45-4.8-2.1-5.95" fill="none" stroke="#ffeabb" stroke-linecap="round" stroke-linejoin="round" transform="translate(22.1 4.75)"/><path d="M-16.65 17.35q.75-3.5 2.2-4.15l1.6-.5q.6-.35 1.35-2.25m22.65 14.6.6-1.4q.8-1.5 1.8-2.05 2.45-1.2 2.9-3.4m-4.7-1.65.6-1.45q.8-1.6 1.65-2.15 1.35-.9.6-3.1m-30.8 15.2q.8-3.35 1.95-4.1 2.3-1.5 2.4-3.65" fill="none" stroke="#d98200" stroke-linecap="round" stroke-linejoin="round" transform="translate(22.1 4.75)"/><path d="m8.65 9.05-.05.65v.75q-.1 2.15 1.35 3.85.7.75 1.6 1.3l-.5.7-.1.1v.05l-.2.15q-.85.65-2.45-2.65l-.05-.05-.4-.95q-1-2.3-.6-3.1l.05-.1 1.1-.65.25-.05" fill="#d5007a" fill-rule="evenodd" transform="translate(22.1 4.75)"/><path d="m17.45 5.25.45.9q.85 1.85.95 3.1l-.05.9m-7.85 6.25v.05l-.2.15q-.85.65-2.45-2.65l-.05-.05-.4-.95q-1-2.3-.6-3.1l.05-.1q.25-.35 1.05-.65h.05m4.15-.6q.1-.9.35-1.75l.25-.9q.5-1.6 1.1-2.2" fill="none" stroke="#d5007a" stroke-linecap="round" stroke-linejoin="round" transform="translate(22.1 4.75)"/><path d="m18.8 10.15-.05.25-1 .85M12.1 14.7l-.45.75-.1.15-.5.7-.1.1" fill="none" stroke="#bb005e" stroke-linecap="round" stroke-linejoin="round" transform="translate(22.1 4.75)"/><path d="M14.25 3.65q.45-.5.95-.5 1.15 0 2.25 2.1M8.4 9.1l.25-.05 1.3-.3.3-.05 2.3-.2" fill="none" stroke="#ff00a6" stroke-linecap="round" stroke-linejoin="round" transform="translate(22.1 4.75)"/><path d="m17.75 11.25-.9.1h-.2l-2.8-.45-.05.1-.75 1.8-.35.7-.25.5-.35.7" fill="none" stroke="#8f0149" stroke-linecap="round" stroke-linejoin="round" transform="translate(22.1 4.75)"/><path d="M-18.25 4.4q.85-1.25 1.75-1.25 1.95 0 2.65 5.4l2.3.2q2.4.35 2.95 1.05.55.85-1 4.15-1.65 3.35-2.45 2.65l-1-1.35q.35-.05.85-.4 1.55-1 1.3-2.85-.35-2.95-3.45-3.05-.4.05-.65.4-.45.75-.4 1.65h-.05l-1.05.2-.75.15.55-.55.15-.15q1.4-1.8.95-4.2-.35-1.9-2.15-2.15l-.5.1" fill="#ff00a6" fill-rule="evenodd" transform="translate(22.1 4.75)"/><path d="m-18.25 4.4.5-.1q1.8.25 2.15 2.15.45 2.4-.95 4.2l-.15.15-.55.55q-2.1.2-2.65-.7l-.1-.25q-.5-1.3.8-4.2l.95-1.8m2.85 6.6q-.05-.9.4-1.65.25-.35.65-.4 3.1.1 3.45 3.05.25 1.85-1.3 2.85-.5.35-.85.4l-.05-.05-.9-1.8-1.15-2.5-.25.1" fill="#d5007a" fill-rule="evenodd" transform="translate(22.1 4.75)"/><path d="M-15.45 11h.05m-3-6.35-.8 1.55q-.95 2.15-.95 3.4m8.6 7.1 1.05-1.1.9-1.65.45-1.05m-1.45-3.95-.95-.2-2.3-.2-.15-.85" fill="none" stroke="#d5007a" stroke-linecap="round" stroke-linejoin="round" transform="translate(22.1 4.75)"/><path d="m-20.15 9.6.05.5.1.3.1.25q.4.65 1.6.75m5.4 4.15.85 1.05.5.1" fill="none" stroke="#bb005e" stroke-linecap="round" stroke-linejoin="round" transform="translate(22.1 4.75)"/><path d="M-14 7.7q-.7-4.55-2.5-4.55-.9 0-1.75 1.25l-.15.25m9.25 8.25q1-2.4.55-3.1-.4-.55-2-.85" fill="none" stroke="#ff00a6" stroke-linecap="round" stroke-linejoin="round" transform="translate(22.1 4.75)"/><path d="m-18.3 11.4 1.05-.05.75-.15.5-.1.55-.1.3-.1 1.15 2.5.1.15.35.8.1.2.35.65.05.05.15.3" fill="none" stroke="#8f0149" stroke-linecap="round" stroke-linejoin="round" transform="translate(22.1 4.75)"/></g></defs></svg>

<?xml version="1.0" encoding="UTF-8" standalone="no"?>
<svg xmlns:xlink="http://www.w3.org/1999/xlink" height="92.9px" width="100.7px" xmlns="http://www.w3.org/2000/svg">
  <g transform="matrix(1.0, 0.0, 0.0, 1.0, 38.65, 49.75)">
    <use height="32.25" transform="matrix(1.0, 0.0, 0.0, 1.0, -22.1, -4.75)" width="43.9" xlink:href="#shape0"/>
  </g>
  <defs>
    <g id="shape0" transform="matrix(1.0, 0.0, 0.0, 1.0, 22.1, 4.75)">
      <path d="M8.95 5.35 Q10.9 5.3 10.0 6.85 L9.3 7.4 7.1 7.85 6.7 7.95 Q2.55 8.65 0.3 6.0 L0.1 5.8 0.05 5.75 -1.45 6.9 Q-3.95 8.15 -6.7 7.65 -7.3 7.55 -7.2 6.95 L-7.15 6.85 -7.6 6.65 Q-8.95 6.1 -7.85 5.15 -7.4 4.75 -6.8 4.85 L-6.5 4.9 Q-5.8 4.1 -4.65 4.45 L-2.9 4.5 -1.2 1.95 -1.05 1.55 Q-0.75 0.8 0.0 0.75 1.45 1.45 0.8 3.0 L1.3 3.8 1.3 3.85 1.35 3.9 1.75 4.4 5.0 4.5 Q6.7 3.05 7.0 5.05 L6.9 5.6 7.9 5.45 8.95 5.35" fill="#000000" fill-opacity="0.2509804" fill-rule="evenodd" stroke="none"/>
      <path d="M19.65 19.05 L18.6 15.0 17.35 12.0" fill="none" stroke="#d98200" stroke-linecap="round" stroke-linejoin="round" stroke-width="1.0"/>
      <path d="M12.5 9.0 L13.45 7.35 14.8 7.9 17.65 9.75 Q19.0 10.95 20.25 13.75 21.4 16.5 21.25 17.6 20.95 19.0 19.3 19.95 20.05 20.95 19.05 22.2 18.45 22.95 17.6 23.1 L17.35 20.8 16.4 17.35 13.9 10.45 Q13.5 9.35 12.55 8.9 L12.5 9.0 M16.7 23.05 L16.2 22.9 15.6 20.7 16.05 22.15 16.25 22.9 16.7 23.05" fill="#ffc300" fill-rule="evenodd" stroke="none"/>
      <path d="M12.5 9.0 L12.55 8.9 Q13.5 9.35 13.9 10.45 L16.4 17.35 17.35 20.8 17.6 23.1 17.1 23.1 16.7 23.05 16.25 22.9 16.05 22.15 15.6 20.7 12.4 9.15 12.5 9.0" fill="#d4a200" fill-rule="evenodd" stroke="none"/>
      <path d="M3.2 -3.3 Q3.75 -2.5 3.95 -1.5 L3.45 -0.9 Q2.65 -0.2 2.85 0.7 L3.15 0.95 5.7 0.25 Q6.45 -0.05 6.55 -0.8 L6.6 -1.15 6.35 -1.35 7.2 -0.7 9.65 -0.5 Q9.2 -0.05 9.15 0.75 L9.3 1.55 Q10.15 3.15 8.5 3.75 7.6 4.1 7.2 4.95 7.1 5.2 7.35 5.4 8.05 5.85 9.0 5.7 10.2 5.5 11.1 4.7 12.55 3.45 11.55 1.7 L12.25 1.65 14.2 5.0 Q14.95 6.5 15.1 9.85 L15.2 10.35 15.45 10.65 Q16.15 10.9 16.3 11.05 17.3 11.9 17.8 15.25 18.3 18.75 17.7 19.95 L17.5 20.4 Q16.5 17.8 14.0 16.7 13.75 16.7 13.6 16.9 L11.55 13.6 Q10.75 12.2 7.7 10.2 6.6 9.45 6.55 8.8 6.45 7.9 6.15 7.5 6.35 5.0 5.25 4.45 L1.9 4.35 Q0.6 3.15 -0.2 2.9 L-0.65 2.85 Q-1.45 4.3 -2.45 4.6 L-5.75 4.8 -8.15 8.45 Q-10.35 10.4 -11.6 12.45 -12.95 14.8 -13.75 18.1 L-15.1 17.05 Q-14.95 14.35 -13.6 12.0 -12.35 9.9 -11.4 7.65 L-10.1 5.75 -9.7 5.0 Q-8.1 3.05 -7.65 0.65 -7.5 -0.25 -8.1 -0.8 L-6.85 -0.9 -6.8 -0.35 Q-6.65 0.65 -5.7 1.25 -4.35 2.05 -2.85 1.65 -1.95 1.4 -1.95 0.55 -1.9 -0.95 -3.1 -1.9 L-3.3 -2.3 Q-3.25 -3.0 -3.5 -3.45 L-4.8 -3.05 Q-3.35 -3.7 -0.65 -3.75 L-0.2 -3.75 3.2 -3.3" fill="#ffc300" fill-rule="evenodd" stroke="none"/>
      <path d="M-4.8 -3.05 L-3.5 -3.45 Q-3.25 -3.0 -3.3 -2.3 L-3.1 -1.9 Q-1.9 -0.95 -1.95 0.55 -1.95 1.4 -2.85 1.65 -4.35 2.05 -5.7 1.25 -6.65 0.65 -6.8 -0.35 L-6.85 -0.9 -6.8 -0.9 Q-6.55 -0.9 -5.9 -2.3 L-5.75 -2.45 -4.8 -3.05 M-8.1 -0.8 Q-7.5 -0.25 -7.65 0.65 -8.1 3.05 -9.7 5.0 L-10.1 5.75 -11.4 7.65 Q-12.35 9.9 -13.6 12.0 -14.95 14.35 -15.1 17.05 -16.8 15.5 -16.45 14.25 L-15.25 8.35 -13.95 3.35 Q-13.0 2.05 -12.75 1.3 -12.4 0.4 -11.95 0.2 L-11.0 -0.2 -8.1 -0.8 M13.6 16.9 Q13.75 16.7 14.0 16.7 16.5 17.8 17.5 20.4 16.9 21.75 15.95 25.4 L15.95 25.15 15.75 23.05 15.65 22.4 15.65 22.35 Q15.3 19.95 14.8 18.65 L13.85 17.3 13.75 17.1 13.6 16.9" fill="#d4a200" fill-rule="evenodd" stroke="none"/>
      <path d="M6.35 -1.35 L6.6 -1.15 6.55 -0.8 Q6.45 -0.05 5.7 0.25 L3.15 0.95 2.85 0.7 Q2.65 -0.2 3.45 -0.9 L3.95 -1.5 Q3.75 -2.5 3.2 -3.3 L5.2 -2.25 5.4 -2.1 6.1 -1.55 6.35 -1.35 M12.25 1.65 L11.55 1.7 Q12.55 3.45 11.1 4.7 10.2 5.5 9.0 5.7 8.05 5.85 7.35 5.4 7.1 5.2 7.2 4.95 7.6 4.1 8.5 3.75 10.15 3.15 9.3 1.55 L9.15 0.75 Q9.2 -0.05 9.65 -0.5 10.55 -0.25 11.2 0.35 L11.7 0.9 12.3 1.65 12.25 1.65" fill="#ffeabb" fill-rule="evenodd" stroke="none"/>
      <path d="M12.95 27.05 Q13.3 20.7 13.3 14.35 L13.3 13.4 13.2 11.7 13.45 11.45 15.1 9.35 Q16.2 12.2 16.35 19.6 L16.15 24.9 Q15.95 27.1 13.65 27.1 L12.95 27.05" fill="#ffc300" fill-rule="evenodd" stroke="none"/>
      <path d="M13.2 11.7 L13.3 13.4 13.3 14.35 Q13.3 20.7 12.95 27.05 11.8 26.85 11.5 26.2 L11.45 26.15 11.4 25.9 11.4 25.6 Q10.6 26.15 10.9 21.45 L12.05 14.3 Q12.05 13.35 12.75 12.3 L13.2 11.7" fill="#d4a200" fill-rule="evenodd" stroke="none"/>
      <path d="M-13.5 7.35 Q-13.6 7.7 -14.2 8.05 -17.5 10.0 -19.25 13.4 L-20.3 15.95 -20.65 18.85 -21.15 18.25 -21.5 17.4 -21.55 17.25 Q-21.7 16.15 -20.5 13.45 L-19.65 11.7 Q-18.85 10.2 -17.9 9.4 L-17.4 8.95 Q-15.7 7.6 -13.7 7.0 L-13.5 7.3 -13.5 7.35 M-19.85 19.5 L-19.3 16.0 -19.05 15.05 Q-18.8 14.25 -18.2 13.7 L-18.0 13.6 Q-17.0 14.1 -17.6 15.25 -18.65 17.35 -18.55 19.75 -18.5 21.1 -18.9 22.35 L-19.35 21.9 Q-20.0 21.1 -19.85 20.3 L-19.55 19.65 -19.85 19.5" fill="#ffc300" fill-rule="evenodd" stroke="none"/>
      <path d="M-13.5 7.35 L-12.7 8.85 -16.5 22.6 Q-17.95 23.05 -18.9 22.35 -18.5 21.1 -18.55 19.75 -18.65 17.35 -17.6 15.25 -17.0 14.1 -18.0 13.6 L-18.2 13.7 Q-18.8 14.25 -19.05 15.05 L-19.3 16.0 -19.85 19.5 -20.65 18.85 -20.3 15.95 -19.25 13.4 Q-17.5 10.0 -14.2 8.05 -13.6 7.7 -13.5 7.35" fill="#d4a200" fill-rule="evenodd" stroke="none"/>
      <path d="M-14.9 10.7 L-13.9 11.9 Q-13.2 12.95 -13.2 13.9 L-12.0 21.05 Q-11.8 25.8 -12.55 25.2 -12.6 26.25 -13.75 26.55 L-14.15 25.75 Q-14.85 24.65 -14.95 23.4 -15.5 17.05 -14.9 10.7" fill="#ffc300" fill-rule="evenodd" stroke="none"/>
      <path d="M-14.9 10.7 Q-15.5 17.05 -14.95 23.4 -14.85 24.65 -14.15 25.75 L-13.75 26.55 -14.85 26.7 Q-16.55 26.75 -17.05 25.5 L-17.1 25.45 -17.2 24.95 -17.25 24.5 -17.55 19.25 Q-17.4 11.65 -16.25 9.0 L-14.9 10.7" fill="#d4a200" fill-rule="evenodd" stroke="none"/>
      <path d="M11.4 9.6 Q12.35 13.25 11.5 16.8 10.65 20.4 11.25 25.7 11.35 27.0 13.45 27.0 15.5 27.0 15.75 25.35 16.65 19.4 16.3 14.75 16.0 11.3 15.0 9.2 L14.5 6.65 Q13.6 3.0 12.75 2.1 L10.65 0.1 Q9.35 -0.85 8.2 -0.85 L7.2 -0.7 Q5.75 -4.25 -0.4 -4.25 -6.55 -4.25 -7.45 -0.4 -9.1 -0.95 -11.0 0.35 -11.8 0.55 -13.05 1.8 -13.9 2.7 -14.75 6.35 L-14.85 6.75 -14.9 7.05 -15.05 7.75 Q-16.75 9.9 -17.1 14.4 -17.45 18.5 -16.55 25.0 -16.3 26.65 -14.25 26.65 -12.15 26.65 -12.05 25.35 -11.45 20.15 -12.25 16.5 -12.8 14.3 -12.55 11.55 L-12.15 9.3" fill="none" stroke="#a95c01" stroke-linecap="round" stroke-linejoin="round" stroke-width="1.0"/>
      <path d="M16.2 22.9 L17.05 23.1 Q18.0 23.2 18.6 22.7 19.5 21.85 19.8 20.9 20.2 20.45 19.7 19.05 20.7 19.6 21.25 17.6 21.6 16.05 19.95 13.25 L17.3 9.1 Q16.75 8.25 15.2 7.7 L13.8 7.35" fill="none" stroke="#a95c01" stroke-linecap="round" stroke-linejoin="round" stroke-width="1.0"/>
      <path d="M-6.65 5.95 Q-6.15 6.2 -7.1 8.1 -8.05 9.95 -8.6 9.1 -9.45 7.75 -8.7 6.1 -7.55 3.6 -4.15 1.8 L-6.65 5.95" fill="#ffc300" fill-rule="evenodd" stroke="none"/>
      <path d="M-13.45 12.3 L-11.0 11.2 Q-9.55 10.75 -7.45 8.55 -7.0 8.05 -5.75 4.8 L-2.45 4.6 Q-1.55 4.25 -0.25 3.05 L1.9 4.7 Q2.75 5.0 5.45 4.7 L5.7 6.1 Q5.85 7.4 6.7 8.55 8.4 10.7 9.65 11.0 L11.3 11.45" fill="none" stroke="#d98200" stroke-linecap="round" stroke-linejoin="round" stroke-width="1.0"/>
      <path d="M-16.5 22.6 Q-17.95 23.2 -18.9 22.35 L-20.05 20.55 -20.0 18.7 Q-21.0 19.25 -21.55 17.25 -21.9 15.65 -20.25 12.9 L-17.6 8.8" fill="none" stroke="#a95c01" stroke-linecap="round" stroke-linejoin="round" stroke-width="1.0"/>
      <path d="M-20.0 18.7 L-18.9 14.65 -17.6 11.65" fill="none" stroke="#ffc300" stroke-linecap="round" stroke-linejoin="round" stroke-width="1.0"/>
      <path d="M14.55 11.5 Q15.8 18.3 14.55 24.95 M19.7 19.05 Q18.25 14.25 17.6 13.1" fill="none" stroke="#ffeabb" stroke-linecap="round" stroke-linejoin="round" stroke-width="1.0"/>
      <path d="M-16.65 17.35 Q-15.9 13.85 -14.45 13.2 L-12.85 12.7 Q-12.25 12.35 -11.5 10.45" fill="none" stroke="#d98200" stroke-linecap="round" stroke-linejoin="round" stroke-width="1.0"/>
      <path d="M11.15 25.05 L11.75 23.65 Q12.55 22.15 13.55 21.6 16.0 20.4 16.45 18.2" fill="none" stroke="#d98200" stroke-linecap="round" stroke-linejoin="round" stroke-width="1.0"/>
      <path d="M11.75 16.55 L12.35 15.1 Q13.15 13.5 14.0 12.95 15.35 12.05 14.6 9.85" fill="none" stroke="#d98200" stroke-linecap="round" stroke-linejoin="round" stroke-width="1.0"/>
      <path d="M-16.2 25.05 Q-15.4 21.7 -14.25 20.95 -11.95 19.45 -11.85 17.3" fill="none" stroke="#d98200" stroke-linecap="round" stroke-linejoin="round" stroke-width="1.0"/>
      <path d="M8.65 9.05 L8.6 9.7 8.6 10.45 Q8.5 12.6 9.95 14.3 10.65 15.05 11.55 15.6 L11.05 16.3 10.95 16.4 10.95 16.45 10.75 16.6 Q9.9 17.25 8.3 13.95 L8.25 13.9 7.85 12.95 Q6.85 10.65 7.25 9.85 L7.3 9.75 8.4 9.1 8.65 9.05" fill="#d5007a" fill-rule="evenodd" stroke="none"/>
      <path d="M17.45 5.25 L17.9 6.15 Q18.75 8.0 18.85 9.25 L18.8 10.15 M10.95 16.4 L10.95 16.45 10.75 16.6 Q9.9 17.25 8.3 13.95 L8.25 13.9 7.85 12.95 Q6.85 10.65 7.25 9.85 L7.3 9.75 Q7.55 9.4 8.35 9.1 L8.4 9.1 M12.55 8.5 Q12.65 7.6 12.9 6.75 L13.15 5.85 Q13.65 4.25 14.25 3.65" fill="none" stroke="#d5007a" stroke-linecap="round" stroke-linejoin="round" stroke-width="1.0"/>
      <path d="M18.8 10.15 L18.75 10.4 17.75 11.25 M12.1 14.7 L11.65 15.45 11.55 15.6 11.05 16.3 10.95 16.4" fill="none" stroke="#bb005e" stroke-linecap="round" stroke-linejoin="round" stroke-width="1.0"/>
      <path d="M14.25 3.65 Q14.7 3.15 15.2 3.15 16.35 3.15 17.45 5.25 M8.4 9.1 L8.65 9.05 9.95 8.75 10.25 8.7 12.55 8.5" fill="none" stroke="#ff00a6" stroke-linecap="round" stroke-linejoin="round" stroke-width="1.0"/>
      <path d="M17.75 11.25 L16.85 11.35 16.65 11.35 13.85 10.9 13.8 11.0 13.05 12.8 12.7 13.5 12.45 14.0 12.1 14.7" fill="none" stroke="#8f0149" stroke-linecap="round" stroke-linejoin="round" stroke-width="1.0"/>
      <path d="M-18.25 4.4 Q-17.4 3.15 -16.5 3.15 -14.55 3.15 -13.85 8.55 L-11.55 8.75 Q-9.15 9.1 -8.6 9.8 -8.05 10.65 -9.6 13.95 -11.25 17.3 -12.05 16.6 L-13.05 15.25 Q-12.7 15.2 -12.2 14.85 -10.65 13.85 -10.9 12.0 -11.25 9.05 -14.35 8.95 -14.75 9.0 -15.0 9.35 -15.45 10.1 -15.4 11.0 L-15.45 11.0 -16.5 11.2 -17.25 11.35 -16.7 10.8 -16.55 10.65 Q-15.15 8.85 -15.6 6.45 -15.95 4.55 -17.75 4.3 L-18.25 4.4" fill="#ff00a6" fill-rule="evenodd" stroke="none"/>
      <path d="M-18.25 4.4 L-17.75 4.3 Q-15.95 4.55 -15.6 6.45 -15.15 8.85 -16.55 10.65 L-16.7 10.8 -17.25 11.35 Q-19.35 11.55 -19.9 10.65 L-20.0 10.4 Q-20.5 9.1 -19.2 6.2 L-18.25 4.4 M-15.4 11.0 Q-15.45 10.1 -15.0 9.35 -14.75 9.0 -14.35 8.95 -11.25 9.05 -10.9 12.0 -10.65 13.85 -12.2 14.85 -12.7 15.2 -13.05 15.25 L-13.1 15.2 -14.0 13.4 -15.15 10.9 -15.4 11.0" fill="#d5007a" fill-rule="evenodd" stroke="none"/>
      <path d="M-15.45 11.0 L-15.4 11.0" fill="none" stroke="#d5007a" stroke-linecap="round" stroke-linejoin="round" stroke-width="1.0"/>
      <path d="M-18.4 4.65 L-19.2 6.2 Q-20.15 8.35 -20.15 9.6 M-11.55 16.7 L-10.5 15.6 -9.6 13.95 -9.15 12.9 M-10.6 8.95 L-11.55 8.75 -13.85 8.55 -14.0 7.7" fill="none" stroke="#d5007a" stroke-linecap="round" stroke-linejoin="round" stroke-width="1.0"/>
      <path d="M-20.15 9.6 L-20.1 10.1 -20.0 10.4 -19.9 10.65 Q-19.5 11.3 -18.3 11.4 M-12.9 15.55 L-12.05 16.6 -11.55 16.7" fill="none" stroke="#bb005e" stroke-linecap="round" stroke-linejoin="round" stroke-width="1.0"/>
      <path d="M-14.0 7.7 Q-14.7 3.15 -16.5 3.15 -17.4 3.15 -18.25 4.4 L-18.4 4.65 M-9.15 12.9 Q-8.15 10.5 -8.6 9.8 -9.0 9.25 -10.6 8.95" fill="none" stroke="#ff00a6" stroke-linecap="round" stroke-linejoin="round" stroke-width="1.0"/>
      <path d="M-18.3 11.4 L-17.25 11.35 -16.5 11.2 -16.0 11.1 -15.45 11.0 -15.15 10.9 -14.0 13.4 -13.9 13.55 -13.55 14.35 -13.45 14.55 -13.1 15.2 -13.05 15.25 -12.9 15.55" fill="none" stroke="#8f0149" stroke-linecap="round" stroke-linejoin="round" stroke-width="1.0"/>
    </g>
  </defs>
</svg>
